src/images/elements/star-hallo.svg

<svg width="249" height="249" viewBox="0 0 249 249" fill="none" xmlns="http://www.w3.org/2000/svg">
<path d="M114.099 29.5L144.399 69.7L185.699 40.9L182.999 91.2L233.199 95.7L198.799 132.5L234.299 168.2L184.299 174.3L188.599 224.5L146.399 197L117.399 238.2L102.699 190L54.0992 203L73.7992 156.7L28.1992 135.3L73.0992 112.5L51.8992 66.7L100.999 78L114.099 29.5Z" fill="#262C20"/>
<path d="M104.598 23.6L133.998 62.6L174.098 34.7L171.498 83.5L220.198 87.9L186.898 123.6L221.398 158.2L172.898 164.1L177.098 212.8L136.098 186.2L107.998 226.2L93.6984 179.5L46.4984 192L65.5984 147L21.3984 126.3L64.8984 104.1L44.1984 59.7L91.7984 70.7L104.598 23.6Z" fill="#9ED821"/>
<path d="M107.499 229.2L92.7992 181L44.0992 194L63.7992 147.7L18.1992 126.3L63.0992 103.5L41.8992 57.7L90.9992 69L104.099 20.4L134.399 60.6L175.699 31.8L172.999 82.2L223.199 86.7L188.799 123.5L224.299 159.2L174.299 165.3L178.599 215.5L136.399 188L107.499 229.2ZM96.0992 175L109.199 218L135.099 181.2L172.799 205.7L168.999 160.9L213.599 155.4L181.899 123.6L212.599 90.7L167.799 86.7L170.199 41.8L133.299 67.5L106.299 31.6L94.4992 75L50.6992 64.9L69.5992 105.7L29.4992 126.1L70.1992 145.2L52.5992 186.6L96.0992 175Z" fill="#262C20"/>
<path d="M99.9004 96L98.5004 96.3L94.9004 113.8L97.8004 113.2L98.9004 108L103.9 107L106.8 111.4L109.7 110.8L99.9004 96ZM99.5004 105.3L100.2 101.4L102.3 104.7L99.5004 105.3ZM108.7 119L107.2 119.3L102.8 127.7L95.6004 121.6L94.1004 121.9L97.2004 137.9L100 137.4L98.1004 127.6C98.1004 127.6 98.2004 127.6 98.2004 127.7C98.7004 128.1 100 129.1 102.1 130.7L103.6 131.8L103.9 131.3C104.5 130.3 105.2 129.2 105.9 127.9C106.3 127.1 106.8 126.4 107.1 125.7L109 135.6L111.8 135.1L108.7 119ZM120.8 106.1L113.5 107.5L111 94.3L108.2 94.8L111.3 110.6L121.3 108.7L120.8 106.1ZM90.3004 98.3L87.5004 98.8L88.7004 105.1L82.4004 106.3L81.2004 100L78.4004 100.5L81.5004 116.3L84.3004 115.8L83.0004 109L89.3004 107.8L90.6004 114.7L93.4004 114.2L90.3004 98.3ZM92.2004 146.8L89.5004 147.3L91.6004 158.1L80.7004 148.8L79.2004 149.1L82.3004 165.1L85.1004 164.6L83.1004 154.5L92.1004 161.8L93.8004 162.9L95.4004 162.6L92.2004 146.8ZM127.8 115.5L125 116L128.1 131.8L130.9 131.3L127.8 115.5ZM150.7 86.2L147.7 86.8L150.5 100.1L153 99.6L150.7 86.2ZM132.7 103.8L125.4 105.2L122.8 92L120 92.5L123.1 108.3L133.1 106.4L132.7 103.8ZM125.6 129.6L117.2 131.2L116.4 126.8L122.2 125.7L121.7 123.1L115.8 124.2L115.1 120.7L123.1 119.2L122.6 116.6L111.9 118.7L115 134.5L126.1 132.4L125.6 129.6ZM101.7 144.5L100.3 144.8L96.7004 162.3L99.6004 161.7L100.7 156.5L105.7 155.5L108.7 159.9L111.6 159.3L101.7 144.5ZM101.3 153.8L102 149.9L104.1 153.2L101.3 153.8ZM150 135.6L147.2 136.1L150.3 151.9L153.1 151.4L150 135.6ZM153.8 101.1C153.7 100.7 153.5 100.3 153.1 100.1C152.7 99.8 152.3 99.8 151.9 99.8C151.5 99.9 151.1 100.1 150.9 100.5C150.7 100.9 150.6 101.3 150.6 101.7C150.7 102.1 150.9 102.5 151.3 102.7C151.6 102.9 151.9 103 152.2 103C152.3 103 152.4 103 152.5 103C152.9 102.9 153.3 102.7 153.5 102.3C153.7 102 153.8 101.6 153.8 101.1ZM165.4 144.2C165.2 143.2 164.7 142.4 164 141.8C163.3 141.2 162.4 140.8 161 140.3L160.2 140.1C159.5 139.9 158.9 139.7 158.4 139.6C158 139.4 157.6 139.2 157.2 139C156.9 138.8 156.8 138.5 156.7 138.2C156.6 137.8 156.7 137.5 157 137.1C157.3 136.7 157.7 136.5 158.3 136.4C158.5 136.4 158.8 136.4 159.1 136.4C159.4 136.4 159.5 136.5 159.7 136.7C159.8 136.8 159.8 136.8 159.8 136.9V137.5L162.6 137.2V136.7C162.6 136.5 162.6 136.3 162.6 136.2C162.5 135.6 162.2 135.1 161.7 134.7C161.2 134.3 160.7 134 160 133.8C159.3 133.6 158.7 133.6 158 133.7C157.2 133.9 156.5 134.2 155.8 134.7C155.2 135.2 154.7 135.8 154.3 136.5C154 137.2 153.9 138 154.1 138.8C154.3 139.6 154.6 140.3 155.2 140.9C155.7 141.4 156.4 141.7 157.1 142C157.8 142.2 158.8 142.5 160 142.9C160.9 143.1 161.6 143.4 162 143.7C162.3 144 162.6 144.3 162.7 144.8C162.9 145.6 162.7 146.2 162.3 146.8C161.9 147.4 161.3 147.7 160.5 147.9C159.8 148 159 147.9 158.3 147.6C157.6 147.3 157 146.7 156.7 146L156.5 145.5L154.2 147L154.4 147.4C154.7 148.2 155.3 148.9 156 149.4C156.7 149.9 157.5 150.3 158.4 150.5C158.9 150.6 159.3 150.7 159.8 150.7C160.2 150.7 160.7 150.7 161.1 150.6C162.1 150.4 162.9 150 163.7 149.4C164.5 148.8 165 148.1 165.4 147.2C165.5 146.1 165.6 145.2 165.4 144.2ZM176.3 133.3L175.8 130.7L163.2 133.1L163.7 135.7L168.6 134.8L171.1 148L173.9 147.5L171.4 134.3L176.3 133.3ZM141.5 151L133.1 152.6L132.3 148.2L138.1 147.1L137.6 144.5L131.7 145.6L131 142.1L139 140.6L138.5 138L127.8 140.1L130.9 155.9L142 153.8L141.5 151ZM124.6 140.3L123.1 140.6L118.7 149L111.5 142.9L110 143.2L113.1 159.2L115.9 158.7L114 148.8C114 148.8 114.1 148.8 114.1 148.9C114.6 149.3 115.9 150.3 118 151.9L119.5 153L119.8 152.5C120.4 151.5 121.1 150.4 121.8 149.1C122.2 148.3 122.7 147.6 123 146.9L124.9 156.8L127.7 156.3L124.6 140.3ZM144.1 112.3L141.4 112.8L143.5 123.6L132.5 114.3L131 114.6L134.1 130.6L136.9 130.1L134.9 120L143.9 127.3L145.6 128.4L147.2 128.1L144.1 112.3ZM147.5 95.8L147.4 95.2C147.1 93.7 146.5 92.5 145.6 91.4C144.7 90.3 143.5 89.5 142.2 89C140.9 88.5 139.5 88.4 138 88.7C136.6 89 135.3 89.6 134.2 90.6C133.1 91.5 132.4 92.7 131.9 94.1C131.4 95.4 131.4 96.9 131.6 98.3L131.7 98.9C132 100.4 132.6 101.7 133.5 102.8C134.4 103.9 135.5 104.6 136.9 105.1C137.7 105.4 138.6 105.5 139.5 105.5C140 105.5 140.6 105.5 141.2 105.4C142.7 105.1 143.9 104.5 145 103.6C146 102.7 146.8 101.5 147.2 100.2C147.8 98.8 147.8 97.3 147.5 95.8ZM144.6 99.2C144.3 100.1 143.8 100.9 143.1 101.5C142.4 102.1 141.6 102.5 140.6 102.7C139.6 102.9 138.7 102.8 137.8 102.5C136.9 102.2 136.2 101.7 135.6 100.9C135 100.2 134.6 99.3 134.4 98.3L134.3 97.7C134.1 96.7 134.2 95.8 134.5 94.9C134.8 94 135.3 93.2 136 92.6C136.7 92 137.5 91.6 138.4 91.4C138.7 91.3 139.1 91.3 139.4 91.3C140 91.3 140.6 91.4 141.1 91.6C142 91.9 142.7 92.5 143.4 93.2C144 93.9 144.4 94.8 144.6 95.7L144.7 96.3C145 97.3 144.9 98.3 144.6 99.2Z" fill="#262C20"/>
</svg>

<svg width="249" height="249" fill="none" xmlns="http://www.w3.org/2000/svg"><path d="m114.1 29.5 30.3 40.2 41.3-28.8-2.7 50.3 50.2 4.5-34.4 36.8 35.5 35.7-50 6.1 4.3 50.2-42.2-27.5-29 41.2-14.7-48.2-48.6 13 19.7-46.3-45.6-21.4 44.9-22.8-21.2-45.8L101 78l13.1-48.5Z" fill="#262C20"/><path d="m104.6 23.6 29.4 39 40.1-27.9-2.6 48.8 48.7 4.4-33.3 35.7 34.5 34.6-48.5 5.9 4.2 48.7-41-26.6-28.1 40-14.3-46.7L46.5 192l19.1-45-44.2-20.7 43.5-22.2-20.7-44.4 47.6 11 12.8-47.1Z" fill="#9ED821"/><path d="M107.5 229.2 92.8 181l-48.7 13 19.7-46.3-45.6-21.4 44.9-22.8-21.2-45.8L91 69l13.1-48.6 30.3 40.2 41.3-28.8-2.7 50.4 50.2 4.5-34.4 36.8 35.5 35.7-50 6.1 4.3 50.2-42.2-27.5-28.9 41.2ZM96.1 175l13.1 43 25.9-36.8 37.7 24.5-3.8-44.8 44.6-5.5-31.7-31.8 30.7-32.9-44.8-4 2.4-44.9-36.9 25.7-27-35.9L94.5 75 50.7 64.9l18.9 40.8-40.1 20.4 40.7 19.1-17.6 41.4L96.1 175Z" fill="#262C20"/><path d="m99.9 96-1.4.3-3.6 17.5 2.9-.6 1.1-5.2 5-1 2.9 4.4 2.9-.6L99.9 96Zm-.4 9.3.7-3.9 2.1 3.3-2.8.6Zm9.2 13.7-1.5.3-4.4 8.4-7.2-6.1-1.5.3 3.1 16 2.8-.5-1.9-9.8s.1 0 .1.1c.5.4 1.8 1.4 3.9 3l1.5 1.1.3-.5c.6-1 1.3-2.1 2-3.4.4-.8.9-1.5 1.2-2.2l1.9 9.9 2.8-.5-3.1-16.1Zm12.1-12.9-7.3 1.4-2.5-13.2-2.8.5 3.1 15.8 10-1.9-.5-2.6Zm-30.5-7.8-2.8.5 1.2 6.3-6.3 1.2-1.2-6.3-2.8.5 3.1 15.8 2.8-.5L83 109l6.3-1.2 1.3 6.9 2.8-.5-3.1-15.9Zm1.9 48.5-2.7.5 2.1 10.8-10.9-9.3-1.5.3 3.1 16 2.8-.5-2-10.1 9 7.3 1.7 1.1 1.6-.3-3.2-15.8Zm35.6-31.3-2.8.5 3.1 15.8 2.8-.5-3.1-15.8Zm22.9-29.3-3 .6 2.8 13.3 2.5-.5-2.3-13.4Zm-18 17.6-7.3 1.4-2.6-13.2-2.8.5 3.1 15.8 10-1.9-.4-2.6Zm-7.1 25.8-8.4 1.6-.8-4.4 5.8-1.1-.5-2.6-5.9 1.1-.7-3.5 8-1.5-.5-2.6-10.7 2.1 3.1 15.8 11.1-2.1-.5-2.8Zm-23.9 14.9-1.4.3-3.6 17.5 2.9-.6 1.1-5.2 5-1 3 4.4 2.9-.6-9.9-14.8Zm-.4 9.3.7-3.9 2.1 3.3-2.8.6Zm48.7-18.2-2.8.5 3.1 15.8 2.8-.5-3.1-15.8Zm3.8-34.5c-.1-.4-.3-.8-.7-1-.4-.3-.8-.3-1.2-.3-.4.1-.8.3-1 .7-.2.4-.3.8-.3 1.2.1.4.3.8.7 1 .3.2.6.3.9.3h.3c.4-.1.8-.3 1-.7.2-.3.3-.7.3-1.2Zm11.6 43.1c-.2-1-.7-1.8-1.4-2.4-.7-.6-1.6-1-3-1.5l-.8-.2c-.7-.2-1.3-.4-1.8-.5l-1.2-.6c-.3-.2-.4-.5-.5-.8-.1-.4 0-.7.3-1.1.3-.4.7-.6 1.3-.7h.8c.3 0 .4.1.6.3.1.1.1.1.1.2v.6l2.8-.3v-1c-.1-.6-.4-1.1-.9-1.5a4.6 4.6 0 0 0-3.7-1c-.8.2-1.5.5-2.2 1-.6.5-1.1 1.1-1.5 1.8-.3.7-.4 1.5-.2 2.3.2.8.5 1.5 1.1 2.1.5.5 1.2.8 1.9 1.1.7.2 1.7.5 2.9.9.9.2 1.6.5 2 .8.3.3.6.6.7 1.1.2.8 0 1.4-.4 2-.4.6-1 .9-1.8 1.1-.7.1-1.5 0-2.2-.3-.7-.3-1.3-.9-1.6-1.6l-.2-.5-2.3 1.5.2.4c.3.8.9 1.5 1.6 2 .7.5 1.5.9 2.4 1.1.5.1.9.2 1.4.2.4 0 .9 0 1.3-.1 1-.2 1.8-.6 2.6-1.2s1.3-1.3 1.7-2.2c.1-1.1.2-2 0-3Zm10.9-10.9-.5-2.6-12.6 2.4.5 2.6 4.9-.9 2.5 13.2 2.8-.5-2.5-13.2 4.9-1ZM141.5 151l-8.4 1.6-.8-4.4 5.8-1.1-.5-2.6-5.9 1.1-.7-3.5 8-1.5-.5-2.6-10.7 2.1 3.1 15.8 11.1-2.1-.5-2.8Zm-16.9-10.7-1.5.3-4.4 8.4-7.2-6.1-1.5.3 3.1 16 2.8-.5-1.9-9.9s.1 0 .1.1c.5.4 1.8 1.4 3.9 3l1.5 1.1.3-.5c.6-1 1.3-2.1 2-3.4.4-.8.9-1.5 1.2-2.2l1.9 9.9 2.8-.5-3.1-16Zm19.5-28-2.7.5 2.1 10.8-11-9.3-1.5.3 3.1 16 2.8-.5-2-10.1 9 7.3 1.7 1.1 1.6-.3-3.1-15.8Zm3.4-16.5-.1-.6a8.14 8.14 0 0 0-5.2-6.2 8.06 8.06 0 0 0-8 1.6c-1.1.9-1.8 2.1-2.3 3.5-.5 1.3-.5 2.8-.3 4.2l.1.6c.3 1.5.9 2.8 1.8 3.9s2 1.8 3.4 2.3c.8.3 1.7.4 2.6.4.5 0 1.1 0 1.7-.1 1.5-.3 2.7-.9 3.8-1.8 1-.9 1.8-2.1 2.2-3.4.6-1.4.6-2.9.3-4.4Zm-2.9 3.4a5.13 5.13 0 0 1-4 3.5c-1 .2-1.9.1-2.8-.2-.9-.3-1.6-.8-2.2-1.6-.6-.7-1-1.6-1.2-2.6l-.1-.6c-.2-1-.1-1.9.2-2.8a5.13 5.13 0 0 1 3.9-3.5c.3-.1.7-.1 1-.1.6 0 1.2.1 1.7.3a6 6 0 0 1 2.3 1.6c.6.7 1 1.6 1.2 2.5l.1.6c.3 1 .2 2-.1 2.9Z" fill="#262C20"/></svg>
